X:1
T:Too Much Mustard [G]
T:Too Much Mustard [G]
T:Tr\`es Moutarde
T:Cecil Macklin (1911)
C:Cecil Macklin (1911)
L:1/8
M:2/4
K:G
V:1 treble 
V:1
"^I" x4 || [Dd][Ee] [Ff][Gg] | [^G^g][Aa] [dd']2 | [Fcd][^Ecd] [Fcd][Ecd] | %4
 [Fcd]2 [dfc'd'] (3(D/E/F/) ||"A" x4 |:"G" z A GA | GA G2 | z B AG | DB, D2 |"D7" z F EF | %11
 DA, D2 |1 z E DE | D2 d (3(D/E/F/) :|2 d^d ef |"G" g2 G2!fine! |]"B" x4 |:"Gm" G2 _B2- | BG ^FG | %19
"Eb" _EG"^/D" _B2- |"^/C" BG"^/Bb" A_B |"C7" _B2 A2- |"D7" AD EF |1"Gm" AG D_B, |"D7" D4 :|2 %25
"Gm" G4- | G4 |]"C" x4 |:"G7" G G2 B | d2 _e2 |"Cm" d c2 G | _E2 =FE |"Gm" G G2 G |"D" GD EF | %34
"Gm" G4- | G2 g (3(D/E/"^->A"F/) :|"D""^Trio." x4 |:"Em" [GB][GB]"B7" [FA][FA]/[FA]/ | %38
"Em" [EG][EG] EB, |"B7" [^DB][Dc] [DB]2- | [DB][^Dc] [DB]2 |"Em" [GB][GB]"B7" [FA][FA]/[FA]/ | %42
"Em" [EG][EG] EB, |"B7" [^DB][Fc] [A^c][A^d] |"Em" [Ge]4 :|"F" x4 |:"C" [eg][ce] [eg][ce] | %47
"G7" [Bg][ca] [Bg]2 |"C" [eg][ce] [eg][ce] |"G7" [Bg][ca] [Bg]2 |"A7" [Ge][G^c] [Ge][Gc] | %51
"D7" [^Fd][Fe] [Fd]2 |1"D7" [FB][FA] [F^G][FA] |"G7" [=FGd]2 [=fg]2 :|2"G" [B,G][CA] [B,G][Ge] | %55
"C" [Ec]2 [ec']2!D.C.! |] %56

